libs/icons/src/svg/youtube.svg

<svg width="16" height="16" viewBox="0 0 16 16" fill="none" xmlns="http://www.w3.org/2000/svg">
<path d="M15.8667 4.80002C15.8667 4.80002 15.7333 3.66669 15.2 3.20002C14.6 2.53336 13.9333 2.53336 13.6 2.53336C11.3333 2.40002 8 2.40002 8 2.40002C8 2.40002 4.66667 2.40002 2.4 2.53336C2.06667 2.60002 1.4 2.60002 0.8 3.20002C0.333333 3.66669 0.133333 4.80002 0.133333 4.80002C0.133333 4.80002 0 6.06669 0 7.40002V8.60002C0 9.86669 0.133333 11.2 0.133333 11.2C0.133333 11.2 0.266667 12.3334 0.8 12.8C1.4 13.4667 2.2 13.4 2.53333 13.4667C3.8 13.6 8 13.6 8 13.6C8 13.6 11.3333 13.6 13.6 13.4C13.9333 13.3334 14.6 13.3334 15.2 12.7334C15.6667 12.2667 15.8667 11.1334 15.8667 11.1334C15.8667 11.1334 16 9.86669 16 8.53336V7.33336C16 6.06669 15.8667 4.80002 15.8667 4.80002ZM6.33333 10.0667V5.60002L10.6667 7.86669L6.33333 10.0667Z" fill="#202327"/>
</svg>

<svg xmlns="http://www.w3.org/2000/svg" viewBox="0 0 16 16" class="sageicon"><path d="M15.867 4.8s-.134-1.133-.667-1.6c-.6-.667-1.267-.667-1.6-.667C11.333 2.4 8 2.4 8 2.4s-3.333 0-5.6.133C2.067 2.6 1.4 2.6.8 3.2.333 3.667.133 4.8.133 4.8S0 6.067 0 7.4v1.2c0 1.267.133 2.6.133 2.6s.134 1.133.667 1.6c.6.667 1.4.6 1.733.667C3.8 13.6 8 13.6 8 13.6s3.333 0 5.6-.2c.333-.067 1-.067 1.6-.667.467-.466.667-1.6.667-1.6S16 9.867 16 8.533v-1.2c0-1.266-.133-2.533-.133-2.533Zm-9.534 5.267V5.6l4.334 2.267-4.334 2.2Z"/></svg>
